icons/plexis/48/hb-icon.svg

<svg viewBox="0 0 48 48" xmlns="http://www.w3.org/2000/svg" xmlns:xlink="http://www.w3.org/1999/xlink">
  <linearGradient id="a" gradientTransform="matrix(0 -1 1 0 -.0000015 47.999998)" gradientUnits="userSpaceOnUse" x1="1" x2="47">
    <stop offset="0" stop-color="#3d3d3d"/>
    <stop offset="1" stop-color="#474747"/>
  </linearGradient>
  <path d="m47 24c0 22.703-.297 23-23 23-22.703 0-23-.297-23-23 0-22.703.297-23 23-23 22.703 0 23 .297 23 23z" fill="url(#a)"/>
  <path d="m27.582 11c-1.198-.015-2.504.035-3.797.137-2.59.204-5.125.625-6.641 1.156-3.039 1.059-3.527 1.125-3.289 2.172.814 1.211 1.326 2.538 1.963 3.826a12 12 0 0 0-2.818 7.709 12 12 0 0 0  12 12 12 12 0 0 0  12-12 12 12 0 0 0-4.111-9.02c.685-1.213 1.073-2.735 1.373-3.842.254-.953-.086-1.258-3.531-1.887-.861-.158-1.951-.235-3.148-.25zm2.773 2.545l.004.002c.316-.027.594.203.617.512.023.309-.207.578-.527.605-.316.023-.598-.209-.621-.518-.023-.309.215-.578.527-.602zm-12.643.955c.316-.027.592.203.619.512.023.309-.213.578-.529.605-.313.023-.594-.207-.617-.516-.027-.309.211-.578.527-.602zm7.287 7.5a4 4 0 0 1 4 4 4 4 0 0 1-4 4 4 4 0 0 1-4-4 4 4 0 0 1  4-4zm0 1a3 3 0 0 0-3 3 3 3 0 0 0  3 3 3 3 0 0 0  3-3 3 3 0 0 0-3-3zm0 1a2 2 0 0 1 2 2 2 2 0 0 1-2 2 2 2 0 0 1-2-2 2 2 0 0 1  2-2z" opacity=".1"/>
  <path d="m26.582 10c-1.198-.015-2.504.035-3.797.137-2.59.204-5.125.625-6.641 1.156-3.039 1.059-3.527 1.125-3.289 2.172 1.051 1.563 1.59 3.323 2.559 4.938.285.207.621.32 1.109.113 4.03-1.566 8.199-2.332 14.02-.996 1.617-1.035 2.262-3.699 2.719-5.383.254-.953-.086-1.258-3.531-1.887-.861-.158-1.951-.235-3.148-.25zm2.773 2.545l.004.002c.316-.027.594.203.617.512.023.309-.207.578-.527.605-.316.023-.598-.209-.621-.518-.023-.309.215-.578.527-.602zm-12.643.955c.316-.027.592.203.619.512.023.309-.213.578-.529.605-.313.023-.594-.207-.617-.516-.027-.309.211-.578.527-.602" fill="#e5604c"/>
  <path d="m24 13a12 12 0 0 0-12 12 12 12 0 0 0  12 12 12 12 0 0 0  12-12 12 12 0 0 0-12-12zm0 8a4 4 0 0 1 4 4 4 4 0 0 1-4 4 4 4 0 0 1-4-4 4 4 0 0 1  4-4zm0 1a3 3 0 0 0-3 3 3 3 0 0 0  3 3 3 3 0 0 0  3-3 3 3 0 0 0-3-3zm0 1a2 2 0 0 1 2 2 2 2 0 0 1-2 2 2 2 0 0 1-2-2 2 2 0 0 1  2-2z" fill="#4ca3e5"/>
</svg>

<svg xmlns="http://www.w3.org/2000/svg" viewBox="0 0 48 48">
 <defs>
  <linearGradient id="linearGradient3764" x1="1" x2="47" gradientUnits="userSpaceOnUse" gradientTransform="matrix(0,-1,1,0,-1.5e-6,47.999998)">
   <stop style="stop-color:#3d3d3d;stop-opacity:1"/>
   <stop offset="1" style="stop-color:#474747;stop-opacity:1"/>
  </linearGradient>
 </defs>
 <g>
  
  
  
 </g>
 <g>
  <path d="m 47,24 C 47,46.703 46.703,47 24,47 1.297,47 1,46.703 1,24 1,1.297 1.297,1 24,1 46.703,1 47,1.297 47,24 z" style="fill:url(#linearGradient3764);fill-opacity:1"/>
 </g>
 <g>
  <g>
   <g transform="translate(1,1)">
    <g style="opacity:0.1">
     <!-- color: #474747 -->
    </g>
   </g>
  </g>
 </g>
 <g>
  <g>
   <!-- color: #474747 -->
   <g>
    <path d="m 27.582 11 c -1.198 -0.015 -2.504 0.035 -3.797 0.137 c -2.59 0.204 -5.125 0.625 -6.641 1.156 c -3.039 1.059 -3.527 1.125 -3.289 2.172 c 0.814 1.211 1.326 2.538 1.963 3.826 a 12 12 0 0 0 -2.818 7.709 a 12 12 0 0 0 12 12 a 12 12 0 0 0 12 -12 a 12 12 0 0 0 -4.111 -9.02 c 0.685 -1.213 1.073 -2.735 1.373 -3.842 c 0.254 -0.953 -0.086 -1.258 -3.531 -1.887 c -0.861 -0.158 -1.951 -0.235 -3.148 -0.25 z m 2.773 2.545 l 0.004 0.002 c 0.316 -0.027 0.594 0.203 0.617 0.512 c 0.023 0.309 -0.207 0.578 -0.527 0.605 c -0.316 0.023 -0.598 -0.209 -0.621 -0.518 c -0.023 -0.309 0.215 -0.578 0.527 -0.602 z m -12.643 0.955 c 0.316 -0.027 0.592 0.203 0.619 0.512 c 0.023 0.309 -0.213 0.578 -0.529 0.605 c -0.313 0.023 -0.594 -0.207 -0.617 -0.516 c -0.027 -0.309 0.211 -0.578 0.527 -0.602 z m 7.287 7.5 a 4 4 0 0 1 4 4 a 4 4 0 0 1 -4 4 a 4 4 0 0 1 -4 -4 a 4 4 0 0 1 4 -4 z m 0 1 a 3 3 0 0 0 -3 3 a 3 3 0 0 0 3 3 a 3 3 0 0 0 3 -3 a 3 3 0 0 0 -3 -3 z m 0 1 a 2 2 0 0 1 2 2 a 2 2 0 0 1 -2 2 a 2 2 0 0 1 -2 -2 a 2 2 0 0 1 2 -2 z" style="fill:#000;opacity:0.1;fill-opacity:1;stroke:none;fill-rule:nonzero"/>
    <path d="m 26.582 10 c -1.198 -0.015 -2.504 0.035 -3.797 0.137 -2.59 0.204 -5.125 0.625 -6.641 1.156 -3.039 1.059 -3.527 1.125 -3.289 2.172 1.051 1.563 1.59 3.323 2.559 4.938 0.285 0.207 0.621 0.32 1.109 0.113 4.03 -1.566 8.199 -2.332 14.02 -0.996 1.617 -1.035 2.262 -3.699 2.719 -5.383 0.254 -0.953 -0.086 -1.258 -3.531 -1.887 -0.861 -0.158 -1.951 -0.235 -3.148 -0.25 z m 2.773 2.545 0.004 0.002 c 0.316 -0.027 0.594 0.203 0.617 0.512 0.023 0.309 -0.207 0.578 -0.527 0.605 -0.316 0.023 -0.598 -0.209 -0.621 -0.518 -0.023 -0.309 0.215 -0.578 0.527 -0.602 z m -12.643 0.955 c 0.316 -0.027 0.592 0.203 0.619 0.512 0.023 0.309 -0.213 0.578 -0.529 0.605 -0.313 0.023 -0.594 -0.207 -0.617 -0.516 c -0.027 -0.309 0.211 -0.578 0.527 -0.602" style="fill:#e5604c;fill-opacity:1;stroke:none;fill-rule:nonzero"/>
   </g>
  </g>
 </g>
 <g>
  
 </g>
 <path d="M 24 13 A 12 12 0 0 0 12 25 A 12 12 0 0 0 24 37 A 12 12 0 0 0 36 25 A 12 12 0 0 0 24 13 z M 24 21 A 4 4 0 0 1 28 25 A 4 4 0 0 1 24 29 A 4 4 0 0 1 20 25 A 4 4 0 0 1 24 21 z M 24 22 A 3 3 0 0 0 21 25 A 3 3 0 0 0 24 28 A 3 3 0 0 0 27 25 A 3 3 0 0 0 24 22 z M 24 23 A 2 2 0 0 1 26 25 A 2 2 0 0 1 24 27 A 2 2 0 0 1 22 25 A 2 2 0 0 1 24 23 z" style="fill:#4ca3e5;opacity:1;fill-opacity:1;stroke:none"/>
</svg>
